X:1
T:When You're Smiling
C:Larry Shay
Z:All Rights Reserved
L:1/4
M:4/4
K:Bb
V:1 treble 
V:1
 z2 D F |:"Bb" B3/2 B/- B2- | B2 D F |"Bbmaj7" A3/2 A/- A2- | A3 F |"G7" G2 G2 | G2 F3/2 E/- | %7
w: When you're|smil- ing, *|* when you're|smil- ing, *|* the|whole world|smiles with you.|
"Cm" E4- | E z E G |"Cm" c3/2 c/- c2- | c2 E G |"Cm7" B3/2 B/- B2- | B3 G |"F7" A2 A2 | %14
w: |* When you're|laugh- ing, *|* when you're|laugh- ing, *|* the|sun comes|
"F+7" A2 G3/2 F/- |"Bb" F4 | z =E F G |"Fm7" _A2 A2- |"Bb9" A2 c2 |"Eb" c B A B- | B ^F G A | %21
w: shin- ing thru.||But when you're|cry- ing|* it|brings on the rain;|* So stop you're|
"Gm7" B2 B2- |"C9" B2 d2 |"Cm7" d c =B c- |"F7" c z D F |"Bb" B3/2 B/- B2- | B B A B | %27
w: sigh- ing,|* be|hap- py a gain.|* Keep on|smil- ing, *|* 'cause when you're|
"G7" d3/2 d/- d2- | d2 G2 |"Cm7" e2 e2 |"F13" d2 d3/2 B/- |"Bb""Bdim7" B4- |"Cm7" B2"F7" D F :| %33
w: smil- ing, *|* The|whole world|smiles with you.||* When you're|

